static/assets/img/icons/theme/weather/storm.svg

<svg height="24" viewBox="0 0 24 24" width="24" xmlns="http://www.w3.org/2000/svg"><g fill="none" fill-rule="evenodd"><path d="m0 0h24v24h-24z" opacity="0"/><g fill="#000"><rect height="2" rx="1" width="14" x="8" y="2"/><path d="m6 6h12c.5522847 0 1 .44771525 1 1s-.4477153 1-1 1h-12c-.55228475 0-1-.44771525-1-1s.44771525-1 1-1zm2 4h7c.5522847 0 1 .4477153 1 1s-.4477153 1-1 1h-7c-.55228475 0-1-.4477153-1-1s.44771525-1 1-1zm3 4h6c.5522847 0 1 .4477153 1 1s-.4477153 1-1 1h-6c-.5522847 0-1-.4477153-1-1s.4477153-1 1-1zm1 4h3c.5522847 0 1 .4477153 1 1s-.4477153 1-1 1h-3c-.5522847 0-1-.4477153-1-1s.4477153-1 1-1zm-1 3h1c.5522847 0 1 .4477153 1 1s-.4477153 1-1 1h-1c-.5522847 0-1-.4477153-1-1s.4477153-1 1-1z" opacity=".3"/></g></g></svg>

<svg width="24px" height="24px" viewBox="0 0 24 24" version="1.1" xmlns="http://www.w3.org/2000/svg" xmlns:xlink="http://www.w3.org/1999/xlink">
    <title>Icon For Storm</title>
    <g stroke="none" stroke-width="1" fill="none" fill-rule="evenodd">
        <polygon points="0 0 24 0 24 24 0 24" opacity="0"></polygon>
        <rect fill="#000000" x="8" y="2" width="14" height="2" rx="1"></rect>
        <path d="M6,6 L18,6 C18.5522847,6 19,6.44771525 19,7 C19,7.55228475 18.5522847,8 18,8 L6,8 C5.44771525,8 5,7.55228475 5,7 C5,6.44771525 5.44771525,6 6,6 Z M8,10 L15,10 C15.5522847,10 16,10.4477153 16,11 C16,11.5522847 15.5522847,12 15,12 L8,12 C7.44771525,12 7,11.5522847 7,11 C7,10.4477153 7.44771525,10 8,10 Z M11,14 L17,14 C17.5522847,14 18,14.4477153 18,15 C18,15.5522847 17.5522847,16 17,16 L11,16 C10.4477153,16 10,15.5522847 10,15 C10,14.4477153 10.4477153,14 11,14 Z M12,18 L15,18 C15.5522847,18 16,18.4477153 16,19 C16,19.5522847 15.5522847,20 15,20 L12,20 C11.4477153,20 11,19.5522847 11,19 C11,18.4477153 11.4477153,18 12,18 Z M11,21 L12,21 C12.5522847,21 13,21.4477153 13,22 C13,22.5522847 12.5522847,23 12,23 L11,23 C10.4477153,23 10,22.5522847 10,22 C10,21.4477153 10.4477153,21 11,21 Z" fill="#000000" opacity="0.3"></path>
    </g>
</svg>
